X:2
T:Jana Gana Mana
C:Rabhindranath Tagore
M:4/4
L:1/4
Q:1/4=96
V:1
V:2
K:F
V:1
F/2 G/2 A/2 A/2 A/2 A/2 A/2 A/2 | A A/2 A/2 G/2 A/2 B | A A/2 A/2 G G/2 G/2 | E/2 G/2 F2 F | c c/2 c/2 c/2 c/2 c/2 c/2 | c c/2 =B/2 c/2 B/2 c | B B/2 B/2 B B/2 A/2 | G/2 B/2 A3 | A A/2 A/2 A A/2 G/2 | c/2 c/2 c/2 B/2 B B | A A/2 A/2 G G/2 G/2 | E/2 G/2 F3
V:2
C/2 B,/2 C2 C | D2 D2 | D2 B,2 | C A,2 A, | A2 A2 | D2 C/2 =B,/2 C | D2 D2 | D C3 | C2 A, B, | C D B,2 | C2 B,2 | C A,3